index_files/u18.svg

﻿<?xml version="1.0" encoding="utf-8"?>
<svg version="1.1" xmlns:xlink="http://www.w3.org/1999/xlink" width="38px" height="34px" xmlns="http://www.w3.org/2000/svg">
  <g transform="matrix(1 0 0 1 -1206 -20 )">
    <path d="M 35.879464285714285 13.063920454545457  C 36.68526785714286 12.436079545454543  37.3921130952381 11.735795454545457  38 10.96306818181818  L 38 30.136363636363637  C 38 31.198863636363637  37.66778273809524 32.10842803030303  37.003348214285715 32.86505681818182  C 36.3389136904762 33.6216856060606  35.54017857142858 34  34.607142857142854 34  L 3.392857142857143 34  C 2.459821428571429 34  1.6610863095238098 33.6216856060606  0.9966517857142858 32.86505681818182  C 0.33221726190476203 32.10842803030303  0 31.198863636363637  0 30.136363636363637  L 0 10.96306818181818  C 0.6220238095238096 11.751893939393938  1.3359375000000002 12.452178030303026  2.1417410714285716 13.063920454545457  C 7.259300595238097 17.024147727272727  10.772321428571429 19.801136363636363  12.680803571428571 21.394886363636363  C 13.486607142857144 22.071022727272727  14.140438988095239 22.598248106060602  14.642299107142856 22.9765625  C 15.144159226190478 23.35487689393939  15.812127976190478 23.74124053030303  16.646205357142858 24.135653409090914  C 17.48028273809524 24.530066287878785  18.2578125 24.727272727272727  18.978794642857142 24.727272727272727  L 19 24.727272727272727  L 19.021205357142858 24.727272727272727  C 19.742187500000004 24.727272727272727  20.519717261904763 24.530066287878785  21.353794642857142 24.135653409090914  C 22.18787202380953 23.74124053030303  22.85584077380953 23.35487689393939  23.357700892857142 22.9765625  C 23.859561011904763 22.598248106060602  24.513392857142858 22.071022727272727  25.31919642857143 21.394886363636363  C 27.72247023809524 19.414772727272727  31.24255952380953 16.637784090909093  35.879464285714285 13.063920454545457  Z M 36.992745535714285 1.13494318181818  C 37.66424851190476 1.8915719696969668  38 2.801136363636364  38 3.863636363636364  C 38 5.135416666666662  37.653645833333336 6.350852272727272  36.9609375 7.50994318181818  C 36.26822916666667 8.669034090909092  35.40587797619048 9.659090909090908  34.37388392857143 10.480113636363637  C 29.05840773809524 14.68181818181818  25.75037202380953 17.29782196969697  24.44977678571429 18.328125  C 24.30840773809524 18.440814393939394  24.007998511904763 18.686316287878785  23.548549107142858 19.064630681818183  C 23.089099702380956 19.442945075757574  22.70740327380953 19.748816287878785  22.40345982142857 19.982244318181817  C 22.09951636904762 20.215672348484844  21.7319568452381 20.477272727272727  21.30078125 20.767045454545457  C 20.869605654761905 21.056818181818183  20.463169642857142 21.274147727272727  20.08147321428571 21.419034090909086  C 19.69977678571429 21.563920454545457  19.346354166666668 21.636363636363637  19.021205357142858 21.636363636363637  L 19 21.636363636363637  L 18.978794642857142 21.636363636363637  C 18.653645833333336 21.636363636363637  18.300223214285715 21.563920454545457  17.918526785714285 21.419034090909086  C 17.536830357142858 21.274147727272727  17.130394345238095 21.056818181818183  16.69921875 20.767045454545457  C 16.268043154761905 20.477272727272727  15.900483630952381 20.215672348484844  15.596540178571429 19.982244318181817  C 15.292596726190478 19.748816287878785  14.91090029761905 19.442945075757574  14.451450892857144 19.064630681818183  C 13.992001488095239 18.686316287878785  13.691592261904765 18.440814393939394  13.550223214285715 18.328125  C 12.263764880952381 17.29782196969697  10.411830357142856 15.828835227272728  7.994419642857142 13.921164772727272  C 5.577008928571428 12.013494318181817  4.127976190476191 10.866477272727268  3.647321428571429 10.480113636363637  C 2.7708333333333335 9.803977272727268  1.9438244047619053 8.874289772727272  1.166294642857143 7.691051136363636  C 0.3887648809523811 6.5078125  0 5.409090909090908  0 4.394886363636364  C 0 3.139204545454544  0.29334077380952395 2.092803030303026  0.8800223214285716 1.25568181818182  C 1.4667038690476193 0.41856060606060286  2.3043154761904767 0  3.392857142857143 0  L 34.607142857142854 0  C 35.52604166666667 0  36.32124255952381 0.3783143939393896  36.992745535714285 1.13494318181818  Z " fill-rule="nonzero" fill="#000000" stroke="none" transform="matrix(1 0 0 1 1206 20 )" />
  </g>
</svg>

<svg xmlns="http://www.w3.org/2000/svg" width="38" height="34"><path d="M35.88 13.064a12.3 12.3 0 0 0 2.12-2.1v19.172q0 1.594-.997 2.73Q36.007 34 34.607 34H3.393q-1.4 0-2.396-1.135Q0 31.73 0 30.136V10.963q.933 1.184 2.142 2.1 7.676 5.941 10.539 8.332 1.21 1.014 1.961 1.582.753.567 2.004 1.159 1.251.591 2.333.591h.042q1.082 0 2.333-.591 1.251-.592 2.004-1.16a51 51 0 0 0 1.961-1.581q3.605-2.97 10.56-8.331m1.113-11.93Q38 2.27 38 3.865q0 1.907-1.04 3.646a10.9 10.9 0 0 1-2.586 2.97q-7.974 6.303-9.924 7.848-.213.169-.901.737-.69.567-1.146.917t-1.102.785a6 6 0 0 1-1.22.652 3 3 0 0 1-1.06.217h-.042q-.488 0-1.06-.217a6 6 0 0 1-1.22-.652q-.647-.434-1.102-.785-.456-.35-1.146-.917t-.9-.737q-1.931-1.546-5.557-4.407a986 986 0 0 1-4.347-3.44q-1.314-1.015-2.48-2.79Q0 5.916 0 4.395q0-1.883.88-3.14Q1.76.002 3.393 0h31.214q1.378 0 2.386 1.135"/></svg>
